X: 39255
T: Tail Toddle, The
R: reel
M: 4/4
K: Dmajor
|:d/d/d fd|g2 ec|d/d/d fd|e2 cA|
d/d/d fd|ge ge|e/f/g f/g/a|e2 cA:|
g2dB|Bg dB|g2dB|Ae cA|
g2dB|Bg dB|e/f/g f/g/a|e2 cA:|

